X:4043
T:Martini Phase (J.-M. Ribeyrolles)
O:england
C:Trad 1, 120
M:2/4
L:1/16
K:C
e f2d2|:a3f a2f2|e4 dcBc|d2 dc BcdB|\
c2 Ae f2 d2|a3f a2f2|e4 dcBc|
d2 dc BcdB|1 Az2e f2d2:|2 A4 GABc||\
|:dedc BcdB|c2A2 GABc|dedc B2d2|
e4 GABc|dedc BcdB|c2A2 GABc|\
dedc B2G2|1 A4 GABc:|2 Azz2z4||


